X: 26565
T: Mick Culloty's
R: polka
M: 2/4
K: Dmajor
|:DF/A/ BA|dA BA|DF/A/ BA|FE E2|
DF/A/ BA|dA BA|FA Bc|ed d2:|
|:de/d/ BA|FA AB/c/|de/d/ BA|Be ef/e/|
de/d/ BA|FA AB/A/|FA Bc|ed d2:|

